X: 35423
T: Roundabout, The
R: polka
M: 2/4
K: Gmajor
G>A Bc|d2 Bd|c2 B>A|GB D2|
G>A Bc|d2 Bd|cd/c/ BA|G2 G2:|
|:A2 B>A|GB dB|A2 B>A|GE ED|
A2 B>A|GB dB|AB/c/ BA|G2 G2:|

